X:1
T:FLOWERS OF EDINBURG -- REEL
B:Ryan's Mammoth Collection of Fiddle Tunes
R:reel
Z:Contributed 20001206171316 by John Chambers John.Chambers:weema.com
Z:Contributed by Ray Davies, ray:davies99.freeserve.co.uk
M:C|
L:1/8
K:G
 (uGE)|.D2((3DEF) .G2(GA) | BGBd cBAG | GFED DEFG | AFBG  E2(GE) |
       .D2((3DEF)  G2(Ac) | BGBd efge | dcBA GFGA | B2G2  G2    :|
|:ud2 |.g2.g2      gbag   | fefg fagf | edef gfed |.B2.e2 efge   |
        dBGB       d2Bd   | edef g2fe | dcBA GFGA | B2G2  G2    :|
